flaticon/dialogue/chat-34.svg

<svg xmlns="http://www.w3.org/2000/svg" width="32" height="32" viewBox="0 0 24 24">
    <path d="M6.398438 8C5.519531 8 4.800781 8.71875 4.800781 9.601562 4.800781 10.480469 5.519531 11.199219 6.398438 11.199219 7.28125 11.199219 8 10.480469 8 9.601562 8 8.71875 7.28125 8 6.398438 8zM6.398438 10.398438C5.957031 10.398438 5.601562 10.042969 5.601562 9.601562 5.601562 9.160156 5.957031 8.800781 6.398438 8.800781 6.839844 8.800781 7.199219 9.160156 7.199219 9.601562 7.199219 10.042969 6.839844 10.398438 6.398438 10.398438zM12 8C11.117188 8 10.398438 8.71875 10.398438 9.601562 10.398438 10.480469 11.117188 11.199219 12 11.199219 12.882812 11.199219 13.601562 10.480469 13.601562 9.601562 13.601562 8.71875 12.882812 8 12 8zM12 10.398438C11.558594 10.398438 11.199219 10.042969 11.199219 9.601562 11.199219 9.160156 11.558594 8.800781 12 8.800781 12.441406 8.800781 12.800781 9.160156 12.800781 9.601562 12.800781 10.042969 12.441406 10.398438 12 10.398438zM17.601562 8C16.71875 8 16 8.71875 16 9.601562 16 10.480469 16.71875 11.199219 17.601562 11.199219 18.480469 11.199219 19.199219 10.480469 19.199219 9.601562 19.199219 8.71875 18.480469 8 17.601562 8zM17.601562 10.398438C17.160156 10.398438 16.800781 10.042969 16.800781 9.601562 16.800781 9.160156 17.160156 8.800781 17.601562 8.800781 18.042969 8.800781 18.398438 9.160156 18.398438 9.601562 18.398438 10.042969 18.042969 10.398438 17.601562 10.398438zM17.601562 10.398438"/>
    <path d="M 21.601562 0.800781 L 2.398438 0.800781 C 1.097656 0.800781 0 1.898438 0 3.199219 L 0 16.398438 C 0 17.699219 1.097656 18.800781 2.398438 18.800781 L 13.824219 18.800781 L 17.703125 23.070312 C 17.78125 23.15625 17.890625 23.199219 18 23.199219 C 18.046875 23.199219 18.097656 23.191406 18.144531 23.171875 C 18.296875 23.113281 18.398438 22.964844 18.398438 22.800781 L 18.398438 18.800781 L 21.601562 18.800781 C 22.902344 18.800781 24 17.699219 24 16.398438 L 24 3.199219 C 24 1.898438 22.902344 0.800781 21.601562 0.800781 Z M 23.199219 16.398438 C 23.199219 17.265625 22.46875 18 21.601562 18 L 18 18 C 17.777344 18 17.601562 18.179688 17.601562 18.398438 L 17.601562 21.765625 L 14.304688 18.136719 L 12.304688 15.8125 C 12.160156 15.644531 11.90625 15.625 11.738281 15.773438 C 11.570312 15.914062 11.554688 16.167969 11.695312 16.335938 L 13.128906 18 L 2.398438 18 C 1.53125 18 0.800781 17.265625 0.800781 16.398438 L 0.800781 3.199219 C 0.800781 2.332031 1.53125 1.601562 2.398438 1.601562 L 21.601562 1.601562 C 22.46875 1.601562 23.199219 2.332031 23.199219 3.199219 Z M 23.199219 16.398438"/>
</svg>

<svg xmlns="http://www.w3.org/2000/svg" width="32" height="32" viewBox="0 0 24 24">
    <path d="M6.398 8c-.878 0-1.597.719-1.597 1.602 0 .878.719 1.597 1.597 1.597C7.281 11.2 8 10.48 8 9.602 8 8.719 7.281 8 6.398 8zm0 2.398a.799.799 0 1 1 .8-.797c.001.442-.358.797-.8.797zm0 0M12 8c-.883 0-1.602.719-1.602 1.602a1.603 1.603 0 0 0 3.203 0C13.602 8.719 12.884 8 12 8zm0 2.398a.799.799 0 1 1 0-1.597.799.799 0 0 1 0 1.598zm0 0M17.602 8C16.719 8 16 8.719 16 9.602c0 .878.719 1.597 1.602 1.597.878 0 1.597-.719 1.597-1.597C19.2 8.719 18.48 8 17.602 8zm0 2.398a.799.799 0 1 1-.005-1.597.799.799 0 0 1 .005 1.597zm0 0"/>
    <path d="M21.602.8H2.398C1.098.8 0 1.899 0 3.2v13.198c0 1.301 1.098 2.403 2.398 2.403h11.426l3.88 4.27a.4.4 0 0 0 .694-.27v-4h3.204c1.3 0 2.398-1.102 2.398-2.403V3.2C24 1.9 22.902.801 21.602.801zm1.597 15.598A1.62 1.62 0 0 1 21.602 18H18a.398.398 0 0 0-.398.398v3.368l-3.297-3.63-2-2.323a.398.398 0 0 0-.567-.04.4.4 0 0 0-.043.563L13.13 18H2.399A1.62 1.62 0 0 1 .8 16.398V3.2c0-.867.73-1.597 1.597-1.597h19.204c.867 0 1.597.73 1.597 1.597zm0 0"/>
</svg>
